X: 1000
T: Vicksburg Stomp
C:Charlie McCoy
B: jims roots
M:4/4
L:1/8
Q: 1/4=100
K:E
V:1 
"A7"AA cc e2 f2 | =gf eg- gf e2 | "E"EE GG Bc- cc | "C#7"ec- cG Bc- cc |
"B7"f=d- dc B2 BB | "C#7"ce2"B7"c B=G G2 | "E"EE EE EE EE | E2 [EB,][E2B,2]E Ee ||
"E"(3=ggg (3ggg (3eee (3eee | (3=ggg (3ggg (3eee (3eee  | (3eee (3eee (3eee (3BBB | "E7"(3=ddd (3=ddd (3=ddd (3=ddd |
"A7"(3=ggg (3ggg (3eee (3eee | (3=ggg (3ggg (3eee (3eee | "E"EE GG Bc- cc | "C#7"ec- cG Bc- cc |
"B7"f=d- dc B2 BB | "C#7"ce2"B7"c B=G F2 | "E"EE EE EE EE | E2 B,B,- B,B, B,2||
|:"E"B2 e2 e2 c2 | e2 c2 =G2 E2 | B,2 E2 ec B2 | "E7"ec B2 =GE F2 | "A7"A,A, CC EF2E |
=GF E2 GE F2 | "E"EE GG Bc- cc | "C#7"ec- cG Bc- cc | "B7"f=d- dc B2 BB |
"C#7"ce2"B7"c B=G F2 | "E"EE EE EE EE | E2 [EB,][EB,]- [EB,][EB,] [E2B,2]:|
"C#7"ce3 cB c2 | "E"e3c e3c | e2 c2 ee2e | ec- cB GB ce- | e4 z4|]
V:B2E2B,2 
 "E"B=c ^c4 | [B2E2B,2] B=c ^c4 | [B2E2B,2] B=c ^c4 | "E7"=g^g =ge- ec B2 |
% abcbook-tune_id 6298c29764b608925239ce98


% abcbook-boost 0
% abcbook-tablature 
% abcbook-transpose 
% abcbook-lastupdated 1654178456544
% abcbook-soundfonts 
% abcbook-repeats 1


